!!!ONB: MCCC : IJH0403_03 : Extracted Monophonic Melody
!!!COM: Haydn, Joseph
!!!OPR: String Quartet in B minor
!!!OMV: 3
!!!SCT: Hob.III:37 ; Op.33 No.1
!!!ODT: 1781///
**kern
*thru
*k[f#c#]
*D:
*clefG
*M6/8
8d
=1
8f#
8a
8dd
8ff#
8aa
8ddd
=2
8..aa
32bb
16.gg
32bb
8ee
8r
8c#
=3
8e
8g
8cc#
8ee
8gg
8eee
=4
8..gg
32aa
16.ff#
32aa
8dd
8r
8dd
=5
8ee
8dd
8aa
8.aa
32bb
32gg
8ff#
=6
8ee
8dd
8aa
8.aa
32bb
32gg
8ff#
=7
8ee
8dd
8ee
8.ff#
16bb
8gg#
=8
8aa
8ccc#
8eee
8aa
4r
=9
8r
8ff#
8ff#
8ff#
8ff#
8ff#
=10
8..gg
32aa
16.ff#
32gg
8ee
4r
=11
8r
8gg
8gg
8gg
8gg
8gg
=12
8..ff#
32aa
16.gg
32bb
8aa
8r
8dd
=13
8cc#
8dd
8.aa
16aa#
16bb
16gg
8ff#
=14
8ee
8dd
8.aa
16ccc#
16eee
16ggg
8fff#[
=15
8fff#]
8eee
4eee
8ddd
8ddd[
=16
16ddd]
16ccc#
16bb
16aa
8aa
8aa
4r
=17
2.ee
=18
2.ee[
=19
8ee]
8aa
8aa
4aa
8gg#
=20
8ff#
8ff#
8ff#
8.ff#
32gg#
32aa
32bb
32ccc#
32ddd
32eee
=21
8fff#
8eee
8ddd
8ddd
8ccc#
8ddd
=22
8ccc#
8ccc#
8ccc#
4ccc#
8eee
=23
8ddd#
8ddd#
8ddd#
16ddd#
16fff#
16aaa
16fff#
16ddd#
16fff#
=24
8eee
8ee
8ee
8ee
8ee
8ee
=25
8ee
8ee
8ee
8ee
8ee
8ee
=26
8ee
8ee
8ee
8ee
8ee
8ee
=27
8ee
8ee
8ee
8ee
8ee
8ee
=28
8ee
8ee
8ee
8ee
8ee
8ee
=29
8ee
8ee
8ee
8dd
8cc#
8b
=30
4a
2r
=31
2r
8r
8gg#
=32
4aa#
8bb
8ee
8r
8gg#
=33
4aa#
8bb
8ee
8r
8gg#
=34
4aa#
8bb
8ee
8ff
8ff#
=35
8gg
8gg#
8aa
8dd
8cc#
8b
=36
4.b
4.a#
=37
8b
8cc#
8dd
8.a
16b
8g#
=38
8a
8a
8g#
4f#
8e
=39
4d
8c#
8B
8A
8G#
=40
8A
8A
8A
8A
8r
8A
=41
8c#
8f#
8a
8cc#
8ff#
8aa
=42
8ff#
16.ee#
32ff#
16.gg#
32aa
8bb
8r
8c#
=43
8e#
8g#
8cc#
8ee#
8gg#
8bb
=44
8..aa
32bb
16.gg#
32aa
8ff#
8r
8cc#
=45
8..dd
32ee
16.cc#
32ee
8dd
8ff#
8aa
=46
4.cc#
8b#
8r
8b#
=47
8..cc#
32dd#
16.b#
32dd#
8cc#
8ee
8gg
=48
4.b
8a#
8r
8a#
=49
8..b
32cc#
16.a#
32cc#
8b
8dd
8ff#
=50
8..cc
32dd
16.b
32dd
8cc
8ff#
8aa
=51
8..cc#
32dd#
16.b#
32dd#
8cc#
8ff#
8aa
=52
8ccc#
8gg#
8ee#
8cc#
4r
=53
2.r
=54
2r
8r
8d
=55
8f#
8a
8dd
16ff#
16gg
16aa
16bb
16ccc#
16ddd
=56
8..aa
32bb
16.gg
32bb
8ee
8r
8ggg
=57
8eee
8ccc#
8aa
8gg
8ee
8cc#
=58
8..g
32a
16.f#
32a
8d
8r
8dd
=59
8ee
8dd
8aa
8.aa
32bb
32gg
8ff#
=60
8ee
8dd
8aa
8.aa
32bb
32gg
8ff#
=61
8.ee
32ff#
32ee
8dd
8cc#
8gg
8ff#
=62
8ee
2r
8r
=63
4aa[
32aa]
32bb
32ccc#
32ddd
8eee
4r
=64
2.r
=65
4aa
32bb
32ccc#
32ddd
32eee
8fff#
4r
=66
2.r
=67
8..aa
32bb
32ccc#
32ddd
32eee
32fff#
8ggg
8eee
8ccc#
=68
4..ddd
16fff#
16eee
16ddd
16ccc#
16ddd
=69
16ccc#
16bb
8bb
8bb
4bb
8bb-
=70
4..aa
16ccc#
16eee
16ccc#
16aa
16gg
=71
8ff#
8ff#
8ff#
4ff#
8dd
=72
16dd
16ddd
16ccc#
16ddd
16ccc
16aa#
16bb
16ff#
16gg
16gg#
16aa
16aa#
=73
16bb
16ddd
16ccc#
16ddd
16bb
16gg#
16aa
16cc#
16dd
16dd#
16ee
16ee#
=74
16ff#
16ddd
16ccc#
16ddd
16ccc
16aa#
16bb
16gg
16ff#
16ff
16ee
16ee-
=75
4.dd
4.ee
=76
8dd
8a
8a
8a
8a
8a
=77
8a
8a
8a
8a
8a
8a
=78
8a
8a
8a
8a
8a
8a
=79
8a
8a
8a
8a
8a
8a
=80
8a
8a
8a
8a
8a
8a
=81
8a
8a
8a
8g
8f#
8e
=82
4d
2r
=83
2r
8r
8cc#
=84
4dd#
8ee
4a
8cc#
=85
4dd#
8ee
8a
8r
8cc#
=86
4dd#
8ee
8a
8b-
8b
=87
8cc
8cc#
8dd
8g
8f#
8e
=88
4.e
4.d#
=89
8e
8f#
8g
8.d
16e
8c#
=90
8d
8dd
8cc#
4b
8a
=91
4g
8f#
8e
8d
8c#
=92
8d
8d
8d
8d
4r
==
*-
